img/textobody.svg

<?xml version="1.0" encoding="UTF-8" standalone="no"?>
<svg xmlns="http://www.w3.org/2000/svg" viewBox="0 0 610.7 162.9">
 <title>Recurso 20</title>
 <g id="f8288304-d602-4fcc-a911-03d6428d2c74" data-name="Capa 2">
  <g id="e876bfdb-9d56-4fd7-a8c0-1aef2640efdf" data-name="Capa 1">
   <g fill="#fff">
    <path d="m25.9 24.8c0 10.9-6 15.5-13.5 15.5h-11.8a0.6 0.6 0 0 1 -0.6 -0.6v-29.8a0.6 0.6 0 0 1 0.6 -0.6h11.8c7.5 0 13.5 4.6 13.5 15.5zm-8.8-0.1c0-5.7-3-8.1-6.7-8.1h-1.4a0.3 0.3 0 0 0 -0.3 0.3v15.7a0.3 0.3 0 0 0 0.3 0.3h1.4c3.7 0 6.7-2.4 6.7-8.2z"/>
    <path d="m27.5 40.3a0.7 0.7 0 0 1 -0.7 -0.6v-29.8c0-0.4 0.3-0.6 0.7-0.6h7.4c0.4 0 0.7 0.2 0.7 0.6v29.8a0.7 0.7 0 0 1 -0.7 0.6z"/>
    <path d="m55 16.4a0.7 0.7 0 0 1 -0.8 0.5 24.1 24.1 0 0 0 -5.6 -0.7c-3.1-0.1-3.5 1.9-3.5 2.4s0.4 2.7 4 3.6a10.1 10.1 0 0 1 7.8 10.1c0 5.9-3.3 8.9-11.8 8.9a62.7 62.7 0 0 1 -6.6 -0.4c-0.3 0-0.5-0.3-0.5-0.7l0.6-6a0.5 0.5 0 0 1 0.7 -0.5 42.2 42.2 0 0 0 5.5 0.7c3.1 0 3.5-1.9 3.5-2.5s-0.4-2.6-4-3.5a10.2 10.2 0 0 1 -7.8 -10.1c0-5.9 4.5-8.9 11.8-8.9a51.8 51.8 0 0 1 6.7 0.4 0.5 0.5 0 0 1 0.5 0.6z"/>
    <path d="m57.8 39.7v-29.8c0-0.4 0.3-0.6 0.7-0.6h18.2a0.6 0.6 0 0 1 0.6 0.6v6.2a0.6 0.6 0 0 1 -0.6 0.6h-10.2v4.4h8.8a0.6 0.6 0 0 1 0.6 0.6v6.2a0.6 0.6 0 0 1 -0.6 0.6h-8.8v4.4h10.2a0.6 0.6 0 0 1 0.6 0.6v6.2a0.6 0.6 0 0 1 -0.6 0.6h-18.2a0.7 0.7 0 0 1 -0.7 -0.6z"/>
    <path d="m97.4 9.3h7.5a0.6 0.6 0 0 1 0.6 0.6v29.8a0.6 0.6 0 0 1 -0.6 0.6h-7.8a0.9 0.9 0 0 1 -0.5 -0.3l-9.7-17.2v16.9a0.6 0.6 0 0 1 -0.6 0.6h-7.5a0.6 0.6 0 0 1 -0.6 -0.6v-29.8a0.6 0.6 0 0 1 0.6 -0.6h7.8l0.5 0.2 9.7 15.7v-15.3a0.6 0.6 0 0 1 0.6 -0.6zm-14.5-5.5c0.8-1 3-3.8 6-3.8s4.1 2 5.3 2 2.1-1.1 2.6-1.8a0.7 0.7 0 0 1 0.9 -0.1l3 2.5a0.6 0.6 0 0 1 0.1 0.8c-0.6 1.1-2.6 4-5.9 4s-4-2.1-5.3-2.1-2.1 1.2-2.7 1.9a0.6 0.6 0 0 1 -0.8 0.1l-3.1-2.6a1 1 0 0 1 -0.1 -0.9z"/>
    <path d="m126.2 9.7l10.9 29.6c0.1 0 0.1 0.1 0.1 0.2v0.2a0.6 0.6 0 0 1 -0.6 0.6h-7.6a0.7 0.7 0 0 1 -0.6 -0.4l-1.6-4.5h-10l-1.6 4.5a0.7 0.7 0 0 1 -0.6 0.4h-7.6a0.6 0.6 0 0 1 -0.6 -0.6v-0.4l11-29.6a0.5 0.5 0 0 1 0.6 -0.4h7.6a0.5 0.5 0 0 1 0.6 0.4zm-2.3 18.1-2.1-5.7-2.1 5.7z"/>
    <path d="m164 24.8c0 10.9-6 15.5-13.5 15.5h-11.8a0.6 0.6 0 0 1 -0.6 -0.6v-29.8a0.6 0.6 0 0 1 0.6 -0.6h11.8c7.5 0 13.5 4.6 13.5 15.5zm-8.8-0.1c0-5.7-3-8.1-6.7-8.1h-1.4a0.3 0.3 0 0 0 -0.3 0.3v15.7a0.3 0.3 0 0 0 0.3 0.3h1.4c3.7 0 6.7-2.4 6.7-8.2z"/>
    <path d="m197.8 25a16.5 16.5 0 0 1 -32.9 0 16.5 16.5 0 0 1 32.9 0zm-8.9 0a7.5 7.5 0 1 0 -7.5 7.4 7.5 7.5 0 0 0 7.5 -7.4z"/>
    <path d="m223.4 40.1a0.6 0.6 0 0 1 -0.6 0.6h-8.1a0.6 0.6 0 0 1 -0.6 -0.6c-0.1-5-2.7-7.7-6.7-7.9v7.9a0.6 0.6 0 0 1 -0.6 0.6h-7.5a0.6 0.6 0 0 1 -0.6 -0.6v-30.2a0.6 0.6 0 0 1 0.6 -0.6h14.7c5.1 0 9.2 3.5 9.2 11.1 0 4.4-1.4 7.5-3.6 9.2a15.9 15.9 0 0 1 3.8 10.5zm-16-16.2a0.3 0.3 0 0 0 0.3 0.3h3.6c1.7 0 3.1-1.3 3.1-3.6s-1.4-3.5-3.1-3.5h-3.6c-0.2 0-0.3 0.1-0.3 0.2z"/>
    <path d="m110.2 98.2v10.4c0 30-24.7 54.3-55.1 54.3s-55.1-24.3-55.1-54.3 24.7-54.3 55.1-54.3a55.1 55.1 0 0 1 43.9 21.5 2 2 0 0 1 -0.4 2.8l-21 15.8a2 2 0 0 1 -2.8 -0.4 24.9 24.9 0 1 0 1.4 27h-24.5a2 2 0 0 1 -2 -2v-20.8a2 2 0 0 1 2 -2h56.5a2 2 0 0 1 2 2z"/>
    <path d="m196.1 159.3a2 2 0 0 1 -2 2.1h-27a2 2 0 0 1 -2 -2c-0.6-17-9.1-25.8-22.6-26.7v26.7a2 2 0 0 1 -2 2h-25.2a2 2 0 0 1 -2 -2v-101.5a2 2 0 0 1 2 -2.1h49.5c17 0 30.8 12 30.8 37.3 0 14.9-4.8 25.1-12.2 31 7.6 8.7 12.3 20.4 12.7 35.2zm-53.6-54.2a1 1 0 0 0 1 0.9h11.9c5.9 0 10.7-4.5 10.7-12s-4.8-12-10.7-12h-11.9a1 1 0 0 0 -1 0.9z"/>
    <path d="m265.6 57.1l36.9 99.4a1.7 1.7 0 0 1 0.1 0.7v0.7a2 2 0 0 1 -2 2h-25.6a2.2 2.2 0 0 1 -1.9 -1.3l-5.5-15h-33.3l-5.5 15a2.1 2.1 0 0 1 -1.9 1.3h-25.6a2 2 0 0 1 -2 -2v-0.7a1.7 1.7 0 0 1 0.1 -0.7l36.8-99.4a2.2 2.2 0 0 1 1.9 -1.3h25.6a2.1 2.1 0 0 1 1.9 1.3zm-23.9-13.7a2.2 2.2 0 0 1 0.2 -2.9l23.8-20.5a2 2 0 0 1 2.9 0.4l10.4 14.3a2 2 0 0 1 -0.5 2.9l-25.6 16.4a2.1 2.1 0 0 1 -2.6 -0.4zm16.4 74.7-7.2-19.3-7.1 19.3z"/>
    <path d="m372.5 57.9v20.7a2.1 2.1 0 0 1 -2 2.1h-35.6v14.7h30.9a2.1 2.1 0 0 1 2 2.1v20.7a2 2 0 0 1 -2 2.1h-30.9v37.5a2 2 0 0 1 -2 2.1h-25.2a2 2 0 0 1 -2 -2.1v-99.9a2 2 0 0 1 2 -2.1h62.8a2 2 0 0 1 2 2.1z"/>
    <path d="m377.7 159.9a2.1 2.1 0 0 1 -2.1 -2.1v-99.9a2.1 2.1 0 0 1 2.1 -2.1h25.1a2 2 0 0 1 2 2.1v99.9a2 2 0 0 1 -2 2.1z"/>
    <path d="m504.7 139.8a1.9 1.9 0 0 1 0.4 2.8 54.3 54.3 0 1 1 -0.1 -68.1 2 2 0 0 1 -0.4 2.8l-20 15.9a1.9 1.9 0 0 1 -2.7 -0.2c-4.7-5.3-11.9-9.3-19.4-9.3a24.9 24.9 0 1 0 0 49.8c7.5 0 14.8-4.1 19.4-9.4a2 2 0 0 1 2.8 -0.2z"/>
    <path d="m610.7 108.6c0 30-24.7 54.3-55.1 54.3s-55.1-24.3-55.1-54.3 24.7-54.3 55.1-54.3 55.1 24.3 55.1 54.3zm-29.9 0a25.2 25.2 0 1 0 -25.2 24.9 25.1 25.1 0 0 0 25.2 -24.9z"/>
   </g>
  </g>
 </g>
</svg>

<svg xmlns="http://www.w3.org/2000/svg" viewBox="0 0 610.7 162.9">
  <title>Recurso 20</title>
  <g id="f8288304-d602-4fcc-a911-03d6428d2c74" data-name="Capa 2">
    <g id="e876bfdb-9d56-4fd7-a8c0-1aef2640efdf" data-name="Capa 1">
      <g>
        <path d="M25.9,24.8c0,10.9-6,15.5-13.5,15.5H.6a.6.6,0,0,1-.6-.6V9.9a.6.6,0,0,1,.6-.6H12.4C19.9,9.3,25.9,13.9,25.9,24.8Zm-8.8-.1c0-5.7-3-8.1-6.7-8.1H9a.3.3,0,0,0-.3.3V32.6a.3.3,0,0,0,.3.3h1.4C14.1,32.9,17.1,30.5,17.1,24.7Z" style="fill: #fff"/>
        <path d="M27.5,40.3a.7.7,0,0,1-.7-.6V9.9c0-.4.3-.6.7-.6h7.4c.4,0,.7.2.7.6V39.7a.7.7,0,0,1-.7.6Z" style="fill: #fff"/>
        <path d="M55,16.4a.7.7,0,0,1-.8.5,24.1,24.1,0,0,0-5.6-.7c-3.1-.1-3.5,1.9-3.5,2.4s.4,2.7,4,3.6a10.1,10.1,0,0,1,7.8,10.1c0,5.9-3.3,8.9-11.8,8.9a62.7,62.7,0,0,1-6.6-.4c-.3,0-.5-.3-.5-.7l.6-6a.5.5,0,0,1,.7-.5,42.2,42.2,0,0,0,5.5.7c3.1,0,3.5-1.9,3.5-2.5s-.4-2.6-4-3.5a10.2,10.2,0,0,1-7.8-10.1c0-5.9,4.5-8.9,11.8-8.9a51.8,51.8,0,0,1,6.7.4.5.5,0,0,1,.5.6Z" style="fill: #fff"/>
        <path d="M57.8,39.7V9.9c0-.4.3-.6.7-.6H76.7a.6.6,0,0,1,.6.6v6.2a.6.6,0,0,1-.6.6H66.5v4.4h8.8a.6.6,0,0,1,.6.6v6.2a.6.6,0,0,1-.6.6H66.5v4.4H76.7a.6.6,0,0,1,.6.6v6.2a.6.6,0,0,1-.6.6H58.5A.7.7,0,0,1,57.8,39.7Z" style="fill: #fff"/>
        <path d="M97.4,9.3h7.5a.6.6,0,0,1,.6.6V39.7a.6.6,0,0,1-.6.6H97.1a.9.9,0,0,1-.5-.3L86.9,22.8V39.7a.6.6,0,0,1-.6.6H78.8a.6.6,0,0,1-.6-.6V9.9a.6.6,0,0,1,.6-.6h7.8l.5.2,9.7,15.7V9.9A.6.6,0,0,1,97.4,9.3ZM82.9,3.8c.8-1,3-3.8,6-3.8S93,2,94.2,2,96.3.9,96.8.2a.7.7,0,0,1,.9-.1l3,2.5a.6.6,0,0,1,.1.8c-.6,1.1-2.6,4-5.9,4s-4-2.1-5.3-2.1-2.1,1.2-2.7,1.9a.6.6,0,0,1-.8.1L83,4.7A1,1,0,0,1,82.9,3.8Z" style="fill: #fff"/>
        <path d="M126.2,9.7l10.9,29.6c.1,0,.1.1.1.2v.2a.6.6,0,0,1-.6.6H129a.7.7,0,0,1-.6-.4l-1.6-4.5h-10l-1.6,4.5a.7.7,0,0,1-.6.4H107a.6.6,0,0,1-.6-.6v-.4l11-29.6a.5.5,0,0,1,.6-.4h7.6A.5.5,0,0,1,126.2,9.7Zm-2.3,18.1-2.1-5.7-2.1,5.7Z" style="fill: #fff"/>
        <path d="M164,24.8c0,10.9-6,15.5-13.5,15.5H138.7a.6.6,0,0,1-.6-.6V9.9a.6.6,0,0,1,.6-.6h11.8C158,9.3,164,13.9,164,24.8Zm-8.8-.1c0-5.7-3-8.1-6.7-8.1h-1.4a.3.3,0,0,0-.3.3V32.6a.3.3,0,0,0,.3.3h1.4C152.2,32.9,155.2,30.5,155.2,24.7Z" style="fill: #fff"/>
        <path d="M197.8,25a16.5,16.5,0,0,1-32.9,0,16.5,16.5,0,0,1,32.9,0Zm-8.9,0a7.5,7.5,0,1,0-7.5,7.4A7.5,7.5,0,0,0,188.9,25Z" style="fill: #fff"/>
        <path d="M223.4,40.1a.6.6,0,0,1-.6.6h-8.1a.6.6,0,0,1-.6-.6c-.1-5-2.7-7.7-6.7-7.9v7.9a.6.6,0,0,1-.6.6h-7.5a.6.6,0,0,1-.6-.6V9.9a.6.6,0,0,1,.6-.6H214c5.1,0,9.2,3.5,9.2,11.1,0,4.4-1.4,7.5-3.6,9.2A15.9,15.9,0,0,1,223.4,40.1Zm-16-16.2a.3.3,0,0,0,.3.3h3.6c1.7,0,3.1-1.3,3.1-3.6s-1.4-3.5-3.1-3.5h-3.6c-.2,0-.3.1-.3.2Z" style="fill: #fff"/>
        <path d="M110.2,98.2v10.4h0c0,30-24.7,54.3-55.1,54.3S0,138.6,0,108.6,24.7,54.3,55.1,54.3A55.1,55.1,0,0,1,99,75.8a2,2,0,0,1-.4,2.8l-21,15.8a2,2,0,0,1-2.8-.4,24.9,24.9,0,1,0,1.4,27H51.7a2,2,0,0,1-2-2V98.2a2,2,0,0,1,2-2h56.5A2,2,0,0,1,110.2,98.2Z" style="fill: #fff"/>
        <path d="M196.1,159.3a2,2,0,0,1-2,2.1h-27a2,2,0,0,1-2-2c-.6-17-9.1-25.8-22.6-26.7v26.7a2,2,0,0,1-2,2H115.3a2,2,0,0,1-2-2V57.9a2,2,0,0,1,2-2.1h49.5c17,0,30.8,12,30.8,37.3,0,14.9-4.8,25.1-12.2,31C191,132.8,195.7,144.5,196.1,159.3Zm-53.6-54.2a1,1,0,0,0,1,.9h11.9c5.9,0,10.7-4.5,10.7-12s-4.8-12-10.7-12H143.5a1,1,0,0,0-1,.9Z" style="fill: #fff"/>
        <path d="M265.6,57.1l36.9,99.4a1.7,1.7,0,0,1,.1.7v.7a2,2,0,0,1-2,2H275a2.2,2.2,0,0,1-1.9-1.3l-5.5-15H234.3l-5.5,15a2.1,2.1,0,0,1-1.9,1.3H201.3a2,2,0,0,1-2-2v-.7a1.7,1.7,0,0,1,.1-.7l36.8-99.4a2.2,2.2,0,0,1,1.9-1.3h25.6A2.1,2.1,0,0,1,265.6,57.1ZM241.7,43.4a2.2,2.2,0,0,1,.2-2.9L265.7,20a2,2,0,0,1,2.9.4L279,34.7a2,2,0,0,1-.5,2.9L252.9,54a2.1,2.1,0,0,1-2.6-.4Zm16.4,74.7-7.2-19.3-7.1,19.3Z" style="fill: #fff"/>
        <path d="M372.5,57.9V78.6a2.1,2.1,0,0,1-2,2.1H334.9V95.4h30.9a2.1,2.1,0,0,1,2,2.1v20.7a2,2,0,0,1-2,2.1H334.9v37.5a2,2,0,0,1-2,2.1H307.7a2,2,0,0,1-2-2.1V57.9a2,2,0,0,1,2-2.1h62.8A2,2,0,0,1,372.5,57.9Z" style="fill: #fff"/>
        <path d="M377.7,159.9a2.1,2.1,0,0,1-2.1-2.1V57.9a2.1,2.1,0,0,1,2.1-2.1h25.1a2,2,0,0,1,2,2.1v99.9a2,2,0,0,1-2,2.1Z" style="fill: #fff"/>
        <path d="M504.7,139.8a1.9,1.9,0,0,1,.4,2.8,54.3,54.3,0,1,1-.1-68.1,2,2,0,0,1-.4,2.8l-20,15.9a1.9,1.9,0,0,1-2.7-.2c-4.7-5.3-11.9-9.3-19.4-9.3a24.9,24.9,0,1,0,0,49.8c7.5,0,14.8-4.1,19.4-9.4a2,2,0,0,1,2.8-.2Z" style="fill: #fff"/>
        <path d="M610.7,108.6c0,30-24.7,54.3-55.1,54.3s-55.1-24.3-55.1-54.3,24.7-54.3,55.1-54.3S610.7,78.6,610.7,108.6Zm-29.9,0a25.2,25.2,0,1,0-25.2,24.9A25.1,25.1,0,0,0,580.8,108.6Z" style="fill: #fff"/>
      </g>
    </g>
  </g>
</svg>
